X:1
T:Title
%%score { 1 | 2 }
L:1/8
M:4/2
K:G
V:1 treble nm="Grand Piano"
V:2 treble 
V:1
 z8 z2 D2 G2 A2 | B6 d2 [DB]2 [DG]2 [DE]2 G2 | E4 D4 z2 B,2 D2 D2 | %3
 G6 [FG]2 [EG]2 [DG]2 [Dc]2 [DB]2 | [Dd]8 z2 [EGc]2 [DFB]2 [CFA]2 | G6 A2 B2 c2 d2 G2 | %6
 A4 c4- c2 [Ec]2 [D^GB]2 [CEA]2 | [B,DG]2 [A,CF]2 [G,B,G]2 [CEA]2 [B,DG]6 z [A,DF] | %8
[M:5/4] [B,DG]2- [B,DG]6 z2 |[M:3/2] z [DGB] [DGd]4 [DGB]6- | [DGB][DFA] [DFc]4 [DFA]6- | %11
 [DFA]G B2- BA c2- cB [EA]2- |[M:11/8] [EA]EG- G3 F-F- F3- |[M:1/8] F- | F | B | %16
[M:6/4] d4 B2- B4- B[FA] | [Fc]4 [FA]2- [FA]4- [FA]G | B3 A c2- cB [CEA]3 [A,EG] | %19
[M:3/4] [A,CF]4 [B,G]2 |] %20
V:2
 z8 z2 [G,B,]2 [G,B,D]2 [G,CD]2 | [G,DG]6 [G,B,G]2[K:bass] [B,,G,]2 [B,,G,]2 [C,G,]2 [E,G,C]2 | %2
 [G,C]4 [G,B,]4 z2 G,2 [G,B,]2 [F,A,]2 | [E,G,B,]6 [D,G,]2 [C,G,]2 [B,,G,]2 [A,,F,]2 [G,,G,]2 | %4
 [D,F,]8 z2 D,2 D,2 D,2 | [G,B,=F]6 [G,CF]2 [G,DF]2 [G,CF]2 [G,B,F]2 [G,B,F]2 | %6
 [C=F]4 [CE]4- [CE]2[K:bass] A,,2 B,,2 C,2 | D,2 ^D,2 E,2 A,,2 =D,6 z D, |[M:5/4] G,,2- G,,6 z2 | %9
[M:3/2] z G, B,4 G,6- | G,D, A,4 D,6- | %11
 D,[G,B,][K:treble] [G,DG]2- [G,DG][G,CG] [G,EG]2- [G,EG][G,CG][K:bass] [C,C]2- | %12
[M:11/8] [C,C][C,A,][D,A,D]- [D,A,D]3 [D,A,D]-[D,A,D]- [D,A,D]3- |[M:1/8] [D,A,D]- | [D,A,D] | %15
 [G,D] |[M:6/4] [B,DG]4 [G,DG]2- [G,DG]4- [G,DG][K:bass][D,C] | %17
 [A,D]4 [D,D]2- [D,D]4- [D,D][G,B,] | [G,DG]3 [G,CG] [G,EG]2- [G,EG][G,DG][K:bass] C,3 C, | %19
[M:3/4] D,4 G,,2 |] %20

